X: 26907
T: Miracle At Glencoe Mills
R: reel
M: 4/4
K: Bminor
f|eAA2 EGBd|eAA2 egfd|eAA2 GABd|EFGB A3f|
eAA2 EGBd|eAA2 egfd|eAA2 GABd|EFGB A3B|
Aaa2 gAfA|eAA2 GABG|Aaa2 gAfA|egfd e2 (3efg|
aAgA Faef|gdBG BcdB|eAA2 GBgB|G3B A3|

